icons/svg/camcorder-box-off.svg

﻿<?xml version="1.0" encoding="utf-8"?>
<!DOCTYPE svg PUBLIC "-//W3C//DTD SVG 1.1//EN" "http://www.w3.org/Graphics/SVG/1.1/DTD/svg11.dtd">
<svg xmlns="http://www.w3.org/2000/svg" xmlns:xlink="http://www.w3.org/1999/xlink" version="1.1" baseProfile="full" width="24" height="24" viewBox="0 0 24.00 24.00" enable-background="new 0 0 24.00 24.00" xml:space="preserve">
	<path fill="#000000" fill-opacity="1" stroke-width="0.2" stroke-linejoin="round" d="M 6.00001,7.99999L 6.727,7.99999L 14,15.273L 14,16L 6.00001,16M 2.27302,0.999987L 1.00001,2.273L 3.003,4.27599C 2.40602,4.622 2.00001,5.26 2.00001,5.99999L 2.00001,18C 2.00001,19.104 2.89601,20 4.00001,20L 18.727,20L 20.727,22L 22,20.727M 20,3.99999L 7.818,3.99999L 11.818,7.99999L 14,7.99999L 14,10.182L 14.566,10.747L 18,7.99999L 18,14.182L 21.983,18.165C 21.988,18.11 22,18.056 22,18L 22,5.99999C 22,4.89604 21.104,3.99999 20,3.99999 Z "/>
</svg>

<svg xmlns="http://www.w3.org/2000/svg" version="1.1" baseProfile="full" width="24" height="24" viewBox="0 0 24.00 24.00" xml:space="preserve"><path fill="#000" fill-opacity="1" stroke-width=".2" stroke-linejoin="round" d="M6 8h.727L14 15.273V16H6M2.273 1L1 2.273l2.003 2.003C2.406 4.622 2 5.26 2 6v12c0 1.104.896 2 2 2h14.727l2 2L22 20.727M20 4H7.818l4 4H14v2.182l.566.565L18 8v6.182l3.983 3.983c.005-.055.017-.11.017-.165V6c0-1.104-.896-2-2-2z"/></svg>
